X:11  
T:Tarentaise
C:Philippe Prieur
I:Mazurka Centre France
Q:1/4=120
M:3/4     %Meter
K:G
G3/2A/  |B7/2 d/ g3/2f/ |e7/2 d/ c3/2B/ |A3/2B/ c3/2d/ d3/2e/ |
d4 G3/2A/ |B7/2 d/ g3/2f/ |e7/2 d/ c3/2B/ |A3/2B/ c3/2A/ F3/2A/ |
G4  :|G3/2F/ |E3/2G/ B3/2d/ c3/2d/ |D3/2F/ A3/2c/ B3/2A/ |
E3/2F/ G3/2A/ B3/2G/ |A3/2F/ D2 G3/2F/ |E3/2G/ B3/2d/ c3/2d/ |D3/2F/ B3/2c/ B3/2A/ |
E3/2F/ G3/2A/ B3/2^c/ |d4  |]
